docs/imgs/logo.svg

<svg width="60" height="39" viewBox="0 0 60 39" fill="none" xmlns="http://www.w3.org/2000/svg">
<path d="M55.9933 19.4126H4.00684V34.3363H55.9933V19.4126Z" fill="#212121"/>
<path d="M5.86153 39H2.8623V35.269H6.86127L5.86153 39V39ZM53.8491 39H56.8483V35.269H52.8493L53.8491 39Z" fill="#FC8F9B"/>
<path d="M20.7025 4.8623C15.1039 5.60849 9.10547 5.98158 2.80711 5.79503C2.00732 5.79503 1.50745 6.54122 1.90735 7.19413C4.50667 11.2981 6.00628 16.1483 6.00628 21.2784V23.89H20.7025V4.8623Z" fill="#00BAB1"/>
<path d="M39.4419 4.8623C45.0404 5.60849 51.0389 5.98158 57.3372 5.79503C58.137 5.79503 58.6369 6.54122 58.237 7.19413C55.6377 11.2981 54.1381 16.1483 54.1381 21.2784V23.89H39.4419V4.8623V4.8623Z" fill="#00BAB1"/>
<path d="M40.9972 22.2109H19.0029C20.1026 15.0288 20.3026 7.94009 19.2029 1.03789C19.1029 0.384977 19.6028 -0.0813884 20.3026 0.0118846C26.7009 0.758069 33.0993 0.758069 39.6976 0.0118846C40.3974 -0.0813884 40.8972 0.47825 40.7973 1.03789C39.5976 8.593 39.7975 15.6817 40.9972 22.2109V22.2109Z" fill="#056D68"/>
<path d="M52.9941 36.2017H7.00609C6.40624 36.2017 6.00635 35.8286 6.00635 35.269V28.7399C6.00635 28.1802 6.40624 27.8071 7.00609 27.8071H52.9941C53.594 27.8071 53.9939 28.1802 53.9939 28.7399V35.269C53.9939 35.8286 53.594 36.2017 52.9941 36.2017Z" fill="#00BAB1"/>
<path d="M29.0004 27.8068H7.00609C6.40624 27.8068 6.00635 27.4337 6.00635 26.8741V22.2104H30.0001V26.8741C30.0001 27.4337 29.6002 27.8068 29.0004 27.8068Z" fill="#056D68"/>
<path d="M13.0045 20.3452C10.4052 20.3452 8.1058 20.9981 6.00635 22.2107H30.0001C27.9007 20.9981 25.6013 20.3452 23.0019 20.3452H13.0045Z" fill="#0D968F"/>
<path d="M30.9997 27.8068H52.994C53.5939 27.8068 53.9938 27.4337 53.9938 26.8741V22.2104H30V26.8741C30 27.4337 30.3999 27.8068 30.9997 27.8068Z" fill="#056D68"/>
<path d="M46.9956 20.3452C49.5949 20.3452 51.8943 20.9981 53.9938 22.2107H30C32.0995 20.9981 34.3989 20.3452 36.9982 20.3452H46.9956Z" fill="#0D968F"/>
<path d="M5.0065 14.469C3.50689 12.3238 -0.192152 13.443 0.00779634 15.9614C0.10777 16.6143 0.407692 17.174 0.807588 17.5471C1.50741 18.2932 2.00728 19.226 2.00728 20.252C2.00728 23.8896 2.00728 32.564 2.00728 35.2689C2.00728 35.8286 2.40717 36.2017 3.00702 36.2017H5.0065C5.60634 36.2017 6.00624 35.8286 6.00624 35.2689V17.5471C6.00624 16.6143 5.70631 15.4018 5.0065 14.469Z" fill="#0D968F"/>
<path d="M54.9934 14.469C56.493 12.3238 60.192 13.443 59.9921 15.9614C59.8921 16.6143 59.5922 17.174 59.1923 17.6403C58.4925 18.3865 57.9926 19.3192 57.9926 20.252C57.9926 23.8896 57.9926 32.6573 57.9926 35.2689C57.9926 35.8286 57.5927 36.2017 56.9929 36.2017H54.9934C54.3935 36.2017 53.9937 35.8286 53.9937 35.2689V17.5471C53.9937 16.6143 54.2936 15.4018 54.9934 14.469Z" fill="#0D968F"/>
</svg>

<svg width="60" height="39" fill="none" xmlns="http://www.w3.org/2000/svg"><path d="M55.993 19.413H4.007v14.923h51.986V19.413z" fill="#212121"/><path d="M5.862 39h-3v-3.731h4l-1 3.731zm47.987 0h3v-3.731h-4l1 3.731z" fill="#FC8F9B"/><path d="M20.703 4.862a110.688 110.688 0 0 1-17.896.933c-.8 0-1.3.746-.9 1.4a26.294 26.294 0 0 1 4.1 14.083v2.612h14.696V4.862zm18.739 0c5.598.746 11.597 1.12 17.895.933.8 0 1.3.746.9 1.4a26.294 26.294 0 0 0-4.099 14.083v2.612H39.442V4.862z" fill="#00BAB1"/><path d="M40.997 22.21H19.003c1.1-7.181 1.3-14.27.2-21.172-.1-.653.4-1.12 1.1-1.026 6.398.746 12.796.746 19.395 0 .7-.093 1.2.466 1.1 1.026-1.2 7.555-1 14.644.2 21.173z" fill="#056D68"/><path d="M52.994 36.202H7.006c-.6 0-1-.373-1-.933v-6.53c0-.559.4-.932 1-.932h45.988c.6 0 1 .373 1 .933v6.529c0 .56-.4.933-1 .933z" fill="#00BAB1"/><path d="M29 27.807H7.006c-.6 0-1-.373-1-.933V22.21H30v4.664c0 .56-.4.933-1 .933z" fill="#056D68"/><path d="M13.005 20.345c-2.6 0-4.9.653-6.999 1.866H30c-2.1-1.213-4.399-1.866-6.998-1.866h-9.997z" fill="#0D968F"/><path d="M31 27.807h21.994c.6 0 1-.373 1-.933V22.21H30v4.664c0 .56.4.933 1 .933z" fill="#056D68"/><path d="M46.996 20.345c2.599 0 4.898.653 6.998 1.866H30c2.1-1.213 4.399-1.866 6.998-1.866h9.998zm-41.99-5.876c-1.5-2.145-5.198-1.026-4.998 1.492.1.653.4 1.213.8 1.586.7.746 1.2 1.679 1.2 2.705v15.017c0 .56.4.933.999.933h2c.6 0 1-.373 1-.933V17.547c0-.933-.3-2.145-1-3.078z" fill="#0D968F"/><path d="M54.993 14.469c1.5-2.145 5.199-1.026 5 1.492-.1.653-.4 1.213-.8 1.68-.7.746-1.2 1.678-1.2 2.611v15.017c0 .56-.4.933-1 .933h-2c-.6 0-1-.373-1-.933V17.547c0-.933.3-2.145 1-3.078z" fill="#0D968F"/></svg>
